!!!OTL: Lied auf Franz von Assisi. (St. Franciscus.)
!!!ARE: Europa, Mitteleuropa, Deutschland
!!!SCT: A0574
!!!TXL: @@DE
!!!YEM: Copyright 1995, estate of Helmut Schaffrath.
**kern	**text
*M4/4	*
*met(c)	*
*clefC1	*
*k[b-]	*
*d:	*
!LO:TX:a:t=d moll.	!
{4d	Ge-
=1	=1
4d	-grüßt
4d	ſeiſt,
4f	ſant
4f	Fran-
=2	=2
2d	-cis-
4c	-ce,
4c	du
=3	=3
4f	En-
4f	-ge-
4g/	-li-
4g/	-ſcher
=4	=4
2a	Mann!
4r}	.
{4a	Dein
=5	=5
4a	Lob
4a	und
4a	Hei-
4a	-lig-
=6	=6
2cc	-kei-
4a	-te
4a	kein
=7	=7
4b-	Menſch
4a	aus-
4g	-ſprechen
4g	.
=8	=8
2f	kann:
4r}	.
{4f	Die
=9	=9
4b-	Welt
4b-	haſt
4a	du
4f	ver-
=10	=10
2g/	-laſ-
4d	-ſen,
4g/	auch
=11	=11
4f	al-
4e-	-les
4d	ʒeit-
4c	-lich
=12	=12
2B-	gut,
4r}	.
{4B-	groß
=13	=13
4f	Ar-
4g	-muth
8aL	auß
8b-J	.
4cc	der
=14	=14
2b-	maſ-
4a	-ſen
4g/	dir
=15	=15
4f	hertʒ-
4e	-lich
4d	lie-
4c	-ben
=16	=16
(8gL	thut.
8a	.
8b-	.
8ccJ	.
2a	.
=17	=17
2g)}	.
{4f	O
4f	Fran-
=18	=18
2e	-cis-
2d;}	-ce!
==	==
!!!GTL: Geistliche Volkslieder
!!!AGN: Romanze, Ballade, Lied, religioeses Lied
!! Werlins Hs. 1646 S. 2981.
!!!ONB: ESAC (Essen Associative Code) Database: ALTDEU
!!!AMT: simple quadruple
!!!AIN: vox
!!!EED: Helmut Schaffrath
!!!EEV: 1.0
!!!URL-scan: https://rosdok.uni-rostock.de/mcrviewer/recordIdentifier/rosdok_ppn738218359/iview2/phys_0758.iview2?x=-171.61612513683053&y=935.969753856305&scale=0.5692057392176044&rotation=0&layout=singlePageLayout&logicalDiv=log_0021
!!!ENC: Anna Maria Matuszewska
!!!EEV: 2024/21/03
*-	*-
